X: 1
T: Tsamikos   [Am]
O: Greek
S: Pinewoods International Collection v.2 p.296
Z: 2014 John Chambers <jc:trillian.mit.edu>
M: 3/4
L: 1/16
K: Am
[|\
"Am"Aeee e2eg ~f2e2 | "Dm"d3d _edcB c4 | "G"cBcd cBA2 "Gm"_BAG2 | "Am"A2GF EDCB, A,2z2 |
"Am"Aeee e2eg ~f2e2 | "Dm"d3d _edcB c4 | "G"B2c2 d2_e2 ^fgfe | "G"d4 {^f}g4 {^c}d4 |]
"Cm"g2gg g2g2 a2g2 | "D"^f3a g^f_ed c4 | "Am"deee e2eg f2e2 | "Dm"d3d _edcB c4 |
"Am"cdee e2eg f2e2 | "Dm"d3d _edcB c2z2 | "G"cBcd cBA2 "Gm"_BAG2 | "Am"A2GF EDCB, A,2z2 |]

%%sep 1 1 500
%%sep 1 1 500
